X: 13
T:Black Nag (harmony part)
M:6/8
L:1/8
K:F
A|F2A c2c|d2d e2e|f2f g2g|fge d2 :|
|:d |A2c A2c|A2c c2e|d2f d2f|d2f d2d|
A2c A2c|A2c c2e|f2f g2g|fge d2 :|

